X:74
T:Air Balloon. THO5.074, The
M:C|
L:1/8
N:pick up rest added to correct short bars
B:Thompson's Complete Collection of 200 Favourite Dances Vol.5
F:https://www.libraryofdance.org/manuals/1780c-Thompson-Compleat-5.pdf
Z:vmp. Peter Dunk 2024
Q:1/4=140
K:A
"^NB"z|A2 Ac E2E2|A2 Ac E4|FGAB cdef|fedc cBAG|
A2 Ac E2E2|A2 Ac E4|efef fedc|cBAG A3:|
|:A|fgaf e2A2|fgaf e4|fgaf fedc|cBAG A2 Ee|
fgaf e2A2|fgaf e4|fgfa fedc|cBAG A3:|
W:
W:the 1st Couple set to the second Lady and hands three round ./.
W:The same with the 2nd Gent ./:
W:two Couples Promenade round :/.
W:La Pousett :/:

